X:1
T:Lord Randall (or, Fair Elson)
M:3/4
L:1/4
K:C
G/2-A/2| B B B| A- GB/2-c/2| d e B| A2G/2-A/2| B B B| A- G B| B AG/2-A/2|\
 G2G/2-A/2| B B B| A G B/2c/2| d e B| A2 B/2c/2| d B d/2e/2| d3/2 B/2 G|\
 A3/2 G/2 A| G2||
